ww_PresentWeather/WeatherSymbol_WMO_PresentWeather_ww_49.svg

<?xml version="1.0" encoding="UTF-8" standalone="no"?>
<!-- Created with Inkscape (http://www.inkscape.org/) -->

<svg
   xmlns:dc="http://purl.org/dc/elements/1.1/"
   xmlns:cc="http://creativecommons.org/ns#"
   xmlns:rdf="http://www.w3.org/1999/02/22-rdf-syntax-ns#"
   xmlns:svg="http://www.w3.org/2000/svg"
   xmlns="http://www.w3.org/2000/svg"
   xmlns:inkscape="http://www.inkscape.org/namespaces/inkscape"
   version="1.1"
   width="55"
   height="55"
   viewBox="-27.5 -27.5 55 55"
   id="svg2">
  <desc
     id="en">
	Codes 40-49 General Group: Fog at the time of observation.
	Code: 49
	Description: Fog, depositing rime ice, or ice fog, sky obscured
</desc>
  <metadata
     id="metadata14">
    <rdf:RDF>
      <cc:Work
         rdf:about="">
        <dc:format>image/svg+xml</dc:format>
        <dc:type
           rdf:resource="http://purl.org/dc/dcmitype/StillImage" />
      </cc:Work>
    </rdf:RDF>
  </metadata>
  <defs
     id="defs12" />
  <g
     id="ww_49">
    <path
       d="M -2,0 0,4 2,0 m -10.5,-9.5 17,0"
       inkscape:connector-curvature="0"
       id="path6"
       style="fill:none;stroke:#000000;stroke-width:3;stroke-linejoin:miter" />
    <path
       d="m -17.5,-9.5 9,0 8.5,17 8.5,-17 9,0 m -35,9.5 h 35 m -35,9.5 h 35"
       inkscape:connector-curvature="0"
       id="path8"
       style="fill:none;stroke:#000000;stroke-width:3;stroke-linejoin:miter" />
  </g>
</svg>

<?xml version="1.0" encoding="UTF-8" standalone="no"?>
<!DOCTYPE svg PUBLIC "-//W3C//DTD SVG 1.1//EN" "http://www.w3.org/Graphics/SVG/1.1/DTD/svg11.dtd">
<svg xmlns="http://www.w3.org/2000/svg" version="1.1" width="55" height="55" viewBox="-27.5 -27.5 55 55">
<desc id="en">
	Codes 40-49 General Group: Fog at the time of observation.
	Code: 49
	Description: Fog, depositing rime ice, or ice fog, sky obscured
</desc>
<g id="ww_49">
	<path d="M -2,0 L 0,4 L 2,0 M -8.5,-9.5 L 8.5,-9.5" fill="none" stroke-width="3" stroke="#000000" stroke-linejoin="miter" />
	<path d="M -17.5,-9.5 L -8.5,-9.5 L 0,7.5 L 8.5,-9.5 L 17.5,-9.5 M -17.5,0 h 35 M -17.5,9.5 h 35" fill="none" stroke-width="3" stroke="#000000" stroke-linejoin="miter" />
</g>
</svg>
